src/images/crypto-icon-svg/qsp.svg

<svg height="32" viewBox="0 0 32 32" width="32" xmlns="http://www.w3.org/2000/svg"><g fill="none" fill-rule="evenodd"><circle cx="16" cy="16" fill="#454545" r="16"/><path d="m11.5 16c0-2.4813587 2.0186413-4.5 4.5-4.5s4.5 2.0186413 4.5 4.5c0 .6531522-.1429891 1.2723913-.3944022 1.8330978l-2.9691848-2.9695108-2.272663 2.272663 2.9693478 2.9693478c-.576257.2596476-1.2010464.3940749-1.8330978.3944022-2.4815217 0-4.5-2.0186413-4.5-4.5m11.8132759 0c0-1.467931-.4366552-2.8320517-1.1811725-3.9775345l2.8678966-2.86805171-2.1544138-2.15441379-2.8680517 2.86789655c-1.1454828-.74451724-2.5096035-1.18117241-3.9775345-1.18117241s-2.8320517.43665517-3.9775345 1.18117241l-2.86805171-2.86789655-2.15441379 2.15441379 2.86789655 2.86805171c-.74451724 1.1454828-1.18117241 2.5096035-1.18117241 3.9775345s.43681034 2.8320517 1.18132758 3.9775345l-2.86805172 2.8680517 2.15441379 2.1544138 2.86805171-2.8680517c1.1456379.7446724 2.5096035 1.1813276 3.9775345 1.1813276s2.8320517-.4366552 3.9775345-1.1813276l2.8680517 2.8680517 2.1544138-2.1544138-2.8680517-2.8680517c.7446724-1.1456379 1.1813276-2.5096035 1.1813276-3.9775345" fill="#fff"/></g></svg>

<svg height="32" width="32" xmlns="http://www.w3.org/2000/svg"><g fill="none" fill-rule="evenodd"><circle cx="16" cy="16" fill="#454545" r="16"/><path d="M11.5 16c0-2.481 2.019-4.5 4.5-4.5s4.5 2.019 4.5 4.5c0 .653-.143 1.272-.394 1.833l-2.97-2.97-2.272 2.273 2.97 2.97A4.468 4.468 0 0 1 16 20.5a4.505 4.505 0 0 1-4.5-4.5m11.813 0a7.273 7.273 0 0 0-1.18-3.978L25 9.154 22.846 7l-2.868 2.868c-1.146-.745-2.51-1.181-3.978-1.181s-2.832.436-3.978 1.18L9.154 7 7 9.154l2.868 2.868c-.745 1.146-1.181 2.51-1.181 3.978s.437 2.832 1.181 3.978L7 22.846 9.154 25l2.868-2.868c1.146.745 2.51 1.181 3.978 1.181s2.832-.436 3.978-1.181L22.846 25 25 22.846l-2.868-2.868A7.272 7.272 0 0 0 23.313 16" fill="#fff"/></g></svg>
